!!!SOCIAL_FUNCTION: unclassified songs
!!!PDT:	1929
!!!LING_GROUP: Caddoan
!!!LANG: Non-Tone
!!!REG: Oklahoma
!!!COM: Anon.
!!!OTL: Mother's Song for a Dead Baby
!!!ODT: <1920//
!!!MPN: Tsastawinahiigat [She led a phony into the ceremony, Effie Blain]
!!!MLC: Pawnee, Oklahoma, United States of America
!! Song was recorded either 1919 or 1920.
!!!AGN: monody
!!!AMT: irregular
!!!RWG: Transcribed pitches, durations, and meters are only approximate.
!! Drum not recorded
**kern
*ICvox
*Ifemale
*clefG2
*k[f#c#]
*MM72
*[A,B,C,B,D]
*>A
*M3/4
8a
=1
8.a
16b
4.a
8a
*>B
=!|:2
8.e
16f#
4.d
8A
=3
8.A
16d
4.d
8f#
*M2/4
=4
8.e
16d
16e
16e
16d
16B
*M3/4
=5
2A
4A
*>C
*M2/4
=6
4.A
8e
*>D
*M2/4
=7
2A
==
*-
!!!HAO:    The next song belonged to the first wife of Roaming Chief, who was a close
!!!HAO: friend of the singer.  She had a little girl who died when about 8 months
!!!HAO: old.  Although she had several other children she grieved for this baby
!!!HAO: and sang the following song about it.  The woman's name was Curuk'siwa.
!!!HTX: [no free translation]
!!!CNT: Pawnee
!!!TXO: Pawnee
!!!OCY: United States
!!!OCL: Frances Densmore
!!!YOR: Frances Densmore, "Pawnee Music"
!!!YOR: Bulletin 93, page 113, No. 83
!!!PPR: Smithsonian Institution, Bureau of American Ethnology
!!!PPR: Government Printing Office
!!!PDT: 1926
!!!PPP: Washington, DC, United States of America
!!!YEC: Electronic Copyright 2000 David Huron
!!!YER: September 2000
!!!YEN: United States of America
!!!ENC: David Huron
!!!RDT: September 10, 2000
!!!EEV: Release 1.0
!!!AIN: vox
